X:1
T:[ID 3v-3a (= 3-110a)]
T:[ID 3v-3a (= 3-110a)]
T:Bezeichnung standardisiert: Anglaise Angl.
T:Urheber unbekannt Datum in der hier transkribierten schriftlichen Quelle: 1767
C:Urheber unbekannt
C:Datum in der hier transkribierten schriftlichen Quelle: 1767
L:1/8
M:3/4
K:G
V:1 treble 
V:1
 D | (GB)(Bd) | d2 (ef) | gdcB | AGFD | (GB)(Bd) | d2 (ef) | gdcB |{B} A2 z :: (DF)(FA) | (AB) c2 | %11
 (DG)(GB) | (Bd) d2 | ecBG | ecBG | AcBA |{A} G2 z2 :: D>DD>D | (DG) G2 | AGAB | c2 B2 | D>DD>D | %22
 (DG) G2 | AGcB |{A} G2 z2 :| %25

